X: 1
T: Brudpolka efter Edvard \"Ojst, Replot
R: polka
Z: 2008 John Chambers <jc:trillian.mit.edu>
F: http://www.spelmansforbundet.fi/musik/skarikurs_syd/
M: 2/4
L: 1/16
K: Em
%%slurgraces 1
|: {c}B2G2 B2GB | e2d2 B4 | {c}B2G2 B2GB | c2A2 D4 \
|  {c}B2G2 B2GB | e2d2 B4 | {c}B2G2 B3A | G2F2 E2 :|
|: {a}g3f e2B2 | (3d2e2d2 B2G2 | E2F2 G2B2 |1 A2GF G2E2 :|2 AGFG E4 |]
%%sep 2 1 500
